flaticon/seo-and-analytics/browser-8.svg

<svg xmlns="http://www.w3.org/2000/svg" width="32" height="32" viewBox="0 0 24 24">
    <path d="M2.800781 1.199219C1.921875 1.199219 1.199219 1.921875 1.199219 2.800781 1.199219 3.679688 1.921875 4.398438 2.800781 4.398438 3.679688 4.398438 4.398438 3.679688 4.398438 2.800781 4.398438 1.921875 3.679688 1.199219 2.800781 1.199219zM2.800781 3.601562C2.359375 3.601562 2 3.238281 2 2.800781 2 2.359375 2.359375 2 2.800781 2 3.238281 2 3.601562 2.359375 3.601562 2.800781 3.601562 3.238281 3.238281 3.601562 2.800781 3.601562zM6.398438 1.199219C5.519531 1.199219 4.800781 1.921875 4.800781 2.800781 4.800781 3.679688 5.519531 4.398438 6.398438 4.398438 7.28125 4.398438 8 3.679688 8 2.800781 8 1.921875 7.28125 1.199219 6.398438 1.199219zM6.398438 3.601562C5.960938 3.601562 5.601562 3.238281 5.601562 2.800781 5.601562 2.359375 5.960938 2 6.398438 2 6.839844 2 7.199219 2.359375 7.199219 2.800781 7.199219 3.238281 6.839844 3.601562 6.398438 3.601562zM10 1.199219C9.121094 1.199219 8.398438 1.921875 8.398438 2.800781 8.398438 3.679688 9.121094 4.398438 10 4.398438 10.878906 4.398438 11.601562 3.679688 11.601562 2.800781 11.601562 1.921875 10.878906 1.199219 10 1.199219zM10 3.601562C9.558594 3.601562 9.199219 3.238281 9.199219 2.800781 9.199219 2.359375 9.558594 2 10 2 10.441406 2 10.800781 2.359375 10.800781 2.800781 10.800781 3.238281 10.441406 3.601562 10 3.601562zM10 3.601562"/>
    <path d="M 22.878906 0 L 1.160156 0 C 0.519531 0 0 0.519531 0 1.160156 L 0 22.71875 C 0 23.441406 0.558594 24 1.28125 24 L 22.71875 24 C 23.441406 24 24 23.441406 24 22.71875 L 24 1.160156 C 24 0.519531 23.480469 0 22.878906 0 Z M 23.199219 22.71875 C 23.199219 23 23 23.199219 22.71875 23.199219 L 1.28125 23.199219 C 1 23.199219 0.800781 23 0.800781 22.71875 L 0.800781 5.601562 L 23.199219 5.601562 Z M 0.800781 4.800781 L 0.800781 1.160156 C 0.800781 0.960938 0.960938 0.800781 1.160156 0.800781 L 22.839844 0.800781 C 23.039062 0.800781 23.199219 0.960938 23.199219 1.160156 L 23.199219 4.800781 Z M 0.800781 4.800781"/>
    <path d="M 4 16.398438 C 4.640625 16.398438 5.203125 16.109375 5.566406 15.652344 L 8.863281 17.484375 C 8.824219 17.648438 8.800781 17.820312 8.800781 18 C 8.800781 19.121094 9.679688 20 10.800781 20 C 11.921875 20 12.800781 19.121094 12.800781 18 C 12.800781 17.347656 12.5 16.773438 12.027344 16.410156 L 13.882812 12.335938 C 14.046875 12.375 14.21875 12.398438 14.398438 12.398438 C 14.917969 12.398438 15.382812 12.210938 15.734375 11.902344 C 15.742188 11.90625 15.75 11.914062 15.761719 11.921875 L 18.160156 13.519531 C 18.171875 13.523438 18.179688 13.53125 18.191406 13.535156 C 18.066406 13.796875 18 14.089844 18 14.398438 C 18 15.519531 18.878906 16.398438 20 16.398438 C 21.121094 16.398438 22 15.519531 22 14.398438 C 22 13.28125 21.121094 12.398438 20 12.398438 C 19.484375 12.398438 19.023438 12.585938 18.671875 12.894531 C 18.652344 12.875 18.625 12.855469 18.601562 12.839844 L 16.214844 11.25 C 16.332031 10.992188 16.398438 10.707031 16.398438 10.398438 C 16.398438 9.28125 15.519531 8.398438 14.398438 8.398438 C 13.28125 8.398438 12.398438 9.28125 12.398438 10.398438 C 12.398438 11.054688 12.699219 11.625 13.171875 11.988281 L 11.320312 16.066406 C 11.152344 16.023438 10.980469 16 10.800781 16 C 10.160156 16 9.597656 16.289062 9.230469 16.746094 L 5.933594 14.914062 C 5.976562 14.75 6 14.578125 6 14.398438 C 6 13.28125 5.121094 12.398438 4 12.398438 C 2.878906 12.398438 2 13.28125 2 14.398438 C 2 15.519531 2.878906 16.398438 4 16.398438 Z M 20 13.199219 C 20.679688 13.199219 21.199219 13.71875 21.199219 14.398438 C 21.199219 15.078125 20.679688 15.601562 20 15.601562 C 19.320312 15.601562 18.800781 15.078125 18.800781 14.398438 C 18.800781 13.71875 19.320312 13.199219 20 13.199219 Z M 14.398438 9.199219 C 15.078125 9.199219 15.601562 9.71875 15.601562 10.398438 C 15.601562 11.078125 15.078125 11.601562 14.398438 11.601562 C 13.71875 11.601562 13.199219 11.078125 13.199219 10.398438 C 13.199219 9.71875 13.71875 9.199219 14.398438 9.199219 Z M 10.800781 16.800781 C 11.480469 16.800781 12 17.320312 12 18 C 12 18.679688 11.480469 19.199219 10.800781 19.199219 C 10.121094 19.199219 9.601562 18.679688 9.601562 18 C 9.601562 17.320312 10.121094 16.800781 10.800781 16.800781 Z M 4 13.199219 C 4.679688 13.199219 5.199219 13.71875 5.199219 14.398438 C 5.199219 15.078125 4.679688 15.601562 4 15.601562 C 3.320312 15.601562 2.800781 15.078125 2.800781 14.398438 C 2.800781 13.71875 3.320312 13.199219 4 13.199219 Z M 4 13.199219"/>
</svg>

<svg xmlns="http://www.w3.org/2000/svg" width="32" height="32" viewBox="0 0 24 24">
    <path d="M2.8 1.2c-.878 0-1.6.722-1.6 1.6 0 .88.722 1.598 1.6 1.598.88 0 1.598-.718 1.598-1.597 0-.88-.718-1.602-1.597-1.602zm0 2.402A.804.804 0 0 1 2 2.8C2 2.359 2.36 2 2.8 2c.438 0 .802.36.802.8 0 .438-.364.802-.801.802zm0 0M6.398 1.2c-.878 0-1.597.722-1.597 1.6 0 .88.719 1.598 1.597 1.598C7.281 4.398 8 3.68 8 2.801c0-.88-.719-1.602-1.602-1.602zm0 2.402a.801.801 0 0 1 0-1.602c.442 0 .801.36.801.8 0 .438-.36.802-.8.802zm0 0M10 1.2c-.879 0-1.602.722-1.602 1.6 0 .88.723 1.598 1.602 1.598.879 0 1.602-.718 1.602-1.597 0-.88-.723-1.602-1.602-1.602zm0 2.402a.804.804 0 0 1-.8-.801.802.802 0 0 1 1.6 0c0 .437-.359.8-.8.8zm0 0"/>
    <path d="M22.879 0H1.16C.52 0 0 .52 0 1.16V22.72C0 23.44.559 24 1.281 24H22.72C23.44 24 24 23.441 24 22.719V1.16C24 .52 23.48 0 22.879 0zm.32 22.719c0 .281-.199.48-.48.48H1.28c-.281 0-.48-.199-.48-.48V5.602h22.398zM.801 4.8V1.16C.8.96.96.8 1.16.8H22.84c.2 0 .36.16.36.36V4.8zm0 0"/>
    <path d="M4 16.398c.64 0 1.203-.289 1.566-.746l3.297 1.832c-.039.164-.062.336-.062.516 0 1.121.879 2 2 2 1.12 0 2-.879 2-2 0-.652-.301-1.227-.774-1.59l1.856-4.074c.164.039.336.062.515.062.52 0 .985-.187 1.336-.496.008.004.016.012.028.02l2.398 1.598c.012.003.02.011.031.015a1.996 1.996 0 0 0-.191.863c0 1.122.879 2 2 2s2-.878 2-2c0-1.117-.879-2-2-2-.516 0-.977.188-1.328.497a.483.483 0 0 0-.07-.055l-2.387-1.59c.117-.258.183-.543.183-.852 0-1.117-.878-2-2-2-1.117 0-2 .883-2 2 0 .657.301 1.227.774 1.59l-1.852 4.078A2.081 2.081 0 0 0 10.8 16c-.64 0-1.202.29-1.57.746l-3.296-1.832c.043-.164.066-.336.066-.516 0-1.117-.879-2-2-2s-2 .883-2 2c0 1.122.879 2 2 2zM20 13.2c.68 0 1.2.52 1.2 1.2 0 .68-.52 1.203-1.2 1.203-.68 0-1.2-.524-1.2-1.204 0-.68.52-1.199 1.2-1.199zm-5.602-4c.68 0 1.204.52 1.204 1.2 0 .68-.524 1.203-1.204 1.203-.68 0-1.199-.524-1.199-1.204 0-.68.52-1.199 1.2-1.199zm-3.597 7.602C11.48 16.8 12 17.32 12 18c0 .68-.52 1.2-1.2 1.2-.679 0-1.198-.52-1.198-1.2 0-.68.52-1.2 1.199-1.2zM4 13.199c.68 0 1.2.52 1.2 1.2 0 .68-.52 1.203-1.2 1.203-.68 0-1.2-.524-1.2-1.204 0-.68.52-1.199 1.2-1.199zm0 0"/>
</svg>
